X:1
T:Title
%%score { ( 1 3 ) | ( 2 4 ) }
L:1/8
Q:1/4=110
M:4/4
K:Bb
V:1 treble nm="Grand Piano"
V:3 treble 
V:2 bass 
V:4 bass 
V:1
 [DB]2 [DB]2 [DA]2 [DG]2 | F2- [B,DF]2 F2- [B,DF]2 | [F,B,D]2 [B,DF]2 .[B,DG]2 .[DB]2 | %3
w: T.~R.~Allen * * *|||
 [CEFA]6 z2 | [A,Ec]2 [A,Ec]2 [A,EG]2 [EA]2 | B2- [DB]2 F2- [DF]2 | =E2 [EG]2 [Ec]2 [Ec]2 | %7
w: ||||
 [EFAc]6[K:bass] z2 | [Fd]2 [Fd]2 cB .[DA]2 | [CEFB]4 [CEFA]4 | [A,Ec]2 [A,Ec]2 [A,EG]2 [EA]2 | %11
w: ||||
 [DFB]6 z2 | [B,EGB]2 [B,EG]2 [B,EGB]2 [B,EG]2 | [FB]4 [DF]4 | [B,EG]2 [Ge]2 [Fd]2 [Ec]2 | %15
w: ||||
[M:3/4] [DB]6 |] %16
w: |
V:2
 [B,,F,]2 [B,,F,]2 [B,,F,]2 [B,,F,]2 | B,,2 z G B,,2 B,,2 | B,,2 B,,2 z A z[K:treble] c | %3
 C,F,,A,,C, F,E,C,A,, | F,,2 F,,2 F,,2 [F,,F,]2 | [B,,F,]2 [B,,F,]2 [B,,B,]2 [B,,B,]2 | %6
 [C,B,C]2 [C,B,]2 [C,B,]2 B,2 | F,F,,A,,C, F,F,,F,,G,, | [B,,B,]2 [B,,F,]2 [B,,B,]2 z G | %9
 C,F,,A,,C, F,E,C,A,, | F,,2 F,,2 F,,2 [F,,F,]2 | B,,C,D,F, B,B,,C,D, | E,2 E,2 E,2 D,2 | %13
 D,B,,D,F, B,F,D,B,, | E,2 [E,B,]2 [F,B,]2 [F,,F,]2 |[M:3/4] A,,G, F,D, B,,2 |] %16
V:3
 x8 | [B,D]2 z2 [B,D]2 z2 | x8 | x8 | x8 | D2 z2 D2 z2 | x8 | z4 z[K:bass] ^F,G,A, | z4 D2 z2 | %9
 x8 | x8 | x8 | x8 | x8 | x8 |[M:3/4] x6 |] %16
V:4
 x8 | z2 B,,2 z4 | z4 B,,2 [B,,F,]2[K:treble] | x8 | x8 | x8 | x8 | x8 | z4 z2 [B,,F,]2 | x8 | x8 | %11
 x8 | x8 | x8 | x8 |[M:3/4] x6 |] %16

